X:1
T:Martin Wynne's #1
C:Martin Wynne
R:reel
M:4/4
L:1/8
K:D
AF~F2 GE~E2|DFAF EFDB,|A,B,DE ~F3B|ABde fedB|
AF~F2 GE~E2|DFAF EFDB,|A,B,DE ~F3B|1 ABde fddB:|2 ABde fede|]
f2af gfeg|fedf edBc|dBAF DEFB|ABde fede|
f2af gfeg|fedf edBc|dBAF DEFB|1 ABde fdde:|2 ABde fedB|]
</abc>
